lib/healthicons/icons/outline/symbols/entry.svg

<svg fill="none" height="48" viewBox="0 0 48 48" width="48" xmlns="http://www.w3.org/2000/svg"><g fill="#333"><path clip-rule="evenodd" d="m23 6.77491v34.45029l11-3.6667v-27.1169zm-.6838-2.33611c-.6475-.21584-1.3162.26613-1.3162.94868v37.22512c0 .6826.6687 1.1646 1.3162.9487l13-4.3333c.4084-.1361.6838-.5183.6838-.9487v-28.55848c0-.43043-.2754-.81257-.6838-.94868z" fill-rule="evenodd"/><path d="m27 23.0001c0 1.1045-.4477 2-1 2s-1-.8955-1-2c0-1.1046.4477-2 1-2s1 .8954 1 2z"/><path clip-rule="evenodd" d="m21 8.00006h-9v31.00004h9v-2h-7v-27h7z" fill-rule="evenodd"/></g></svg>

<svg width="48" height="48" viewBox="0 0 48 48" fill="none" xmlns="http://www.w3.org/2000/svg">
<path fill-rule="evenodd" clip-rule="evenodd" d="M23 6.77491V41.2252L34 37.5585V10.4416L23 6.77491ZM22.3162 4.4388C21.6687 4.22296 21 4.70493 21 5.38748V42.6126C21 43.2952 21.6687 43.7772 22.3162 43.5613L35.3162 39.228C35.7246 39.0919 36 38.7097 36 38.2793V9.72082C36 9.29039 35.7246 8.90825 35.3162 8.77214L22.3162 4.4388Z" fill="#333333"/>
<path d="M27 23.0001C27 24.1046 26.5523 25.0001 26 25.0001C25.4477 25.0001 25 24.1046 25 23.0001C25 21.8955 25.4477 21.0001 26 21.0001C26.5523 21.0001 27 21.8955 27 23.0001Z" fill="#333333"/>
<path fill-rule="evenodd" clip-rule="evenodd" d="M21 8.00006H12V39.0001H21V37.0001H14V10.0001H21V8.00006Z" fill="#333333"/>
</svg>
